X:1
T:When the Shadows Flee Away
T:When the Shadows Flee Away
T:Robert Harkness
T:Robert Harkness, 1922
T:Public Domain Courtesy of the Cyber Hymnal™
T:Public Domain Courtesy of the Cyber Hymnal™
C:Robert Harkness
Z:Public Domain
Z:Courtesy of the Cyber Hymnal™
%%score ( 1 2 ) ( 3 4 )
L:1/8
Q:1/4=120
M:4/4
K:G
V:1 treble 
V:2 treble 
V:3 bass 
V:4 bass 
V:1
"^Duet" [DB]2 [B,D]2 [^A,^C]2 [B,D]2 | [CE]2 [Ec]2 [DB]3 [CA] | z2 x12 | [B,G]6 z2 | %4
w: 1.~Some day I shall|hear God’s call of|||
w: 2.~Soon that dawn e-|ter- nal shall ap-|||
w: 3.~Some day toil and|care of life shall|||
w: 4.~Tears and sighs for-|ev- er o- ver-|||
 [EG]2 [B,G]2 [EG]2 [DG]2 | [^CG]2 [CB]2 [CA]2 [CG]2 | z2 F2 E2 F2 | [CDA]6 z2 | %8
w: love Call- ing to|the land of end-|||
w: pear, When shall come|the end of life’s|||
w: cease, In that land|my Lord shall have|||
w: past, In that land|il- lum- ined by|||
 [DB]2 [B,D]2 [^A,^C]2 [B,D]2 | [CE]2 [Ec]2 [DB]3 [CA] | [B,G]8- | [B,G]6 z2 || %12
w: less day; I shall|then be with my|Lord||
w: dark way; I shall|be with loved ones|I||
w: full sway; Naught can|mar its won- drous|joy||
w: His ray; Cloud of|sin can ne- ver|o-||
"^Harmony" [GA]2 [GA]6 | [G^A]2 [GA]6 | [GB]2 G2 [Gc]2 [GB]2 | [FB]6 [DA]2 | [DG]8 || %17
w: a- bove.|||||
w: hold dear.|||||
w: and peace.|||||
w: ver- cast.|||||
"^Refrain" [Fd]2 [Fc]2 [FB]2 [FA]2 | [F^G] [FA]3 [FB]3 [FA] | D8 | [CE] [CE]3 [EG]2 [Ec]2 | [Ge]8 | %22
w: |||||
w: |||||
w: |||||
w: |||||
 D3 D [DG]2 [GB]2 | [Gd]8 | [^Gd]2 [GB]2 [Gd]2 [GB]2 | [^CB] [CE]3 [=CB]3 [B,B] | [B,G]8 | %27
w: |||||
w: |||||
w: |||||
w: |||||
 [GA]2 [GA]6 | [G^A]2 [GA]6 | [GB]2 G2 [Gc]2 [GB]2 | [FB]6 [DA]2 | [DG]8 |] %32
w: |||||
w: |||||
w: |||||
w: |||||
V:2
 x8 | x8 | ([B,G]8- D2) _D2 C2 | x8 | x8 | x8 | [CA]8- | x8 | x8 | x8 | x8 | x8 || x8 | x8 | %14
 x2 G2 x4 | x8 | x8 || x8 | x8 | D8 | x8 | x8 | D3 D x4 | x8 | x8 | x8 | x8 | x8 | x8 | x2 G2 x4 | %30
 x8 | x8 |] %32
V:3
 G,,2 D,2 E,2 D,2 | (C,B,,) A,,2 D,2 F,2 | G,2 F,2 =F,2 E,2 x6 | [G,,D,]6 z2 | E,,2 B,,2 E,2 B,,2 | %5
w: ~ ~ ~ ~|~ * ~ ~ ~|~ * * *||~ ~ ~ ~|
 E,2 G,2 F,2 E,2 | F,2 A,2 G,2 A,2 | [D,F,]6 z2 | G,,2 D,2 E,2 D,2 | (C,B,,) A,,2 [D,G,]3 [^D,F,] | %10
w: ~ ~ ~ ~|~ * * *||~ ~ ~ ~|~ * ~ ~ ~|
 (G,2 C,2 B,,2 G,,2 | E,,6 E,2) || [E,^C]2 [E,C]6 | [_E,^C]2 [E,C]6 | %14
w: ~ * * *||Some day!|Some day!|
 [D,D]2 [D,B,]2 [D,E]2 [D,D]2 | [D,D]6 [D,C]2 | [G,B,]8 || [D,A,]2 [D,E]2 [D,D]2 [D,C]2 | %18
w: When the sha- dows|flee a-|way.|Some day when the|
 [D,B,] [D,C]3 [D,D]3 [D,C] | [G,B,]8 | [C,G,] [C,G,]3 [C,C]2 [C,G,]2 | [C,C]8 | %22
w: sha- dows flee a-|way,|Sor- row shall be|o’er|
 [G,B,]3 [G,B,] [G,B,]2 [G,D]2 | [G,B,]8 | [E,B,]2 [E,D]2 [E,B,]2 [E,D]2 | %25
w: Care be known no|more;|Some day when the|
 [A,,G,] [A,,G,]3 [D,F,]3 [^D,F,] | [E,G,]8 | [E,^C]2 [E,C]6 | [_E,^C]2 [E,C]6 | %29
w: sha- dows flee a-|way,|Some day!|Some day!|
 [D,D]2 [D,B,]2 [D,E]2 [D,D]2 | [D,D]6 [D,C]2 | [G,B,]8 |] %32
w: When the sha- dows|flee a-|way.|
V:4
 x8 | x8 | G,,8- x6 | x8 | x8 | A,,4 A,,4 | D,8- | x8 | x8 | x8 | x8 | x8 || x8 | x8 | x8 | x8 | %16
 x8 || x8 | x8 | x8 | x8 | x8 | x8 | x8 | x8 | x8 | x8 | x8 | x8 | x8 | x8 | x8 |] %32

